!!!!SEGMENT: Fss2003-In_illo_tempore_postquam.krn
!!!id: Fss2003
!!!AGN: Motet
!!!SCT: Picker (1987)
!!!voices: 4
!!!COM: Sebastiano Festa
!!!OTL: In illo tempore postquam
**kern	**kern	**kern	**kern
*part4	*part3	*part2	*part1
*staff4	*staff3	*staff2	*staff1
*I"Bassus	*I"Tenor	*I"Altus	*I"Superius
*I'B	*I'T	*I'A	*I'S
*clefF4	*clefGv2	*clefGv2	*clefG2
*k[b-]	*k[b-]	*k[b-]	*k[b-]
*F:	*F:	*F:	*F:
*M2/1	*M2/1	*M2/1	*M2/1
*met(C|)	*met(C|)	*met(C|)	*met(C|)
!!section: Prima pars: In illo tempore postquam
!!!OMD: Prima pars: In illo tempore postquam
=1	=1	=1	=1
0r	0r	0r	0f
=2	=2	=2	=2
0r	0r	0B-y	0b-y
=3	=3	=3	=3
0r	0r	0e-X	0g
=4	=4	=4	=4
0r	0F	0c	1.a
.	.	.	2f
=5	=5	=5	=5
0BB-y	0B-y	1.d	0f
.	.	2B-y	.
=6	=6	=6	=6
1E-X	1G	1B-y	0r
1C	[1A	1r	.
=7	=7	=7	=7
1.D	2A]	1.A	1.f
.	2F	.	.
.	[1F	.	.
2BB-y	.	2B-y	2d
=8	=8	=8	=8
0BB-y;	0F;]	0B-y;	0d;
=9	=9	=9	=9
0r	0r	0r	1f
.	.	.	1f
=10	=10	=10	=10
0r	0r	1c	1.cc
.	.	1c	.
.	.	.	2g
=11	=11	=11	=11
0r	0r	1.g	1b-y
.	.	.	2b-y
.	.	2d	2b-y
=12	=12	=12	=12
0r	1F	1f	2a
.	.	.	2f
.	1F	2f	1a
.	.	2f	.
=13	=13	=13	=13
1C	1.c	2e	[0g
.	.	2c	.
1C	.	1e	.
.	2G	.	.
=14	=14	=14	=14
1.G	1B-y	0d	1g]
.	2B-y	.	1r
2D	2B-y	.	.
=15	=15	=15	=15
1F	2A	0r	1a
.	2F	.	.
2F	1A	.	[1cc
2F	.	.	.
=16	=16	=16	=16
2E	0G	1e	2cc]
2C	.	.	2cc
1E-X	.	2.g	2.b-y
.	.	4g	4b-y
=17	=17	=17	=17
0D	1r	2.f	2b-y
.	.	.	2b-y
.	.	4f	.
.	1A	2f	1a
.	.	2f	.
=18	=18	=18	=18
1r	1.c	0e	[0g
1E	.	.	.
.	2c	.	.
=19	=19	=19	=19
1.G	2.B-y	0d	0g]
.	4B-y	.	.
.	2B-y	.	.
2G	2B-y	.	.
=20	=20	=20	=20
2.F	0A	0r	2r
.	.	.	2cc
4F	.	.	.
2F	.	.	2dd
2F	.	.	[2cc
=21	=21	=21	=21
0E	1G	1r	2cc]
.	.	.	4b-y
.	.	.	4a
.	1r	1c	2.g
.	.	.	4f
=22	=22	=22	=22
0D	1r	1.f	1a
.	1F	.	1r
.	.	2e	.
=23	=23	=23	=23
0r	1.B-y	1.d	1f
.	.	.	[1b-y
.	2A	2c	.
=24	=24	=24	=24
0r	2G	2B-y	2b-]
.	2F	2c	2a
.	2B-y	2.d	2g
.	2A	.	2f
.	.	4c	.
=25	=25	=25	=25
0r	1G	1d	2b-y
.	.	.	2a
.	1c	1e	1g
=26	=26	=26	=26
0r	[0F	[0c	0a
=27	=27	=27	=27
0r	0F]	0c]	[0f
=28	=28	=28	=28
0BB-y	0B-y	0d	0f_
=29	=29	=29	=29
0F;	0A;	0c;	0f;]
=30	=30	=30	=30
1.C	1.c	1.e	1.g
2C	2c	2e	2g
=31	=31	=31	=31
1C	1c	1e	1g
1C	1c	1e	1a
=32	=32	=32	=32
1.BB-y	1.d	1.f	1.b-y
2BB-y	2c	2e	2a
=33	=33	=33	=33
1BB-y	1B-y	1d	1g
1BB-y	1d	1d	1f
=34	=34	=34	=34
0C	0c	0g	0e
=35	=35	=35	=35
1.F	1.A	1.f	1.cc
2F	2A	2f	2cc
=36	=36	=36	=36
1BB-y	1B-y	1f	1dd
1F	1A	1f	1cc
=37	=37	=37	=37
1G	1B-y	1d	1b-y
1C	1c	1e	1g
=38	=38	=38	=38
0c	1F	1f	1a
.	1r	1e	[1g
=39	=39	=39	=39
1B-y	1r	1d	2g]
.	.	.	2f
1F	1A	1c	[1f
=40	=40	=40	=40
1G	2.B-y	1B-y	2f]
.	.	.	4e
.	4A	.	4d
1C	1G	1c	1e
=41	=41	=41	=41
0BB-y;	0B-y;	0d;	0f;
=	=	=	=
1r	1r	1r	1r
=42	=42	=42	=42
1.F	1.A	1.f	1.cc
2F	2A	2f	2cc
=43	=43	=43	=43
1BB-y	1B-y	1f	1dd
1F	1A	1f	1cc
=44	=44	=44	=44
1G	1B-y	1d	1b-y
1C	1c	1e	1g
=45	=45	=45	=45
0c	1F	1f	1a
.	1r	1e	[1g
=46	=46	=46	=46
1B-y	1r	1d	2g]
.	.	.	2f
1F	1A	1c	[1f
=47	=47	=47	=47
1G	2.B-y	1B-y	2f]
.	.	.	4e
.	4A	.	4d
1C	1G	1c	1e
=48	=48	=48	=48
00BB-yl	00B-yl	00dl	00fl
==	==	==	==
*-	*-	*-	*-
!!!system-decoration: [*]
!!!RDF**kern: i = editorial accidental
!!!RDF**kern: l = terminal long
!!!ENC: Benjamin Ory
!!!END: 2021/3/5
!!!EED: Benjamin Ory
!!!EEV: 2021/04/27
!!!YEC: Copyright 2021 Benjamin Ory, All Rights Reserved
!!!ONB: Translated from MusicXML on 2021/04/27
